!!!COM: Music21
!!!OTL: reel_White-Butterfly
!!!OMV: reel_White-Butterfly
**kern
*clefG2
*k[f#c#g#]
*A:
*M4/4
=1
8aaL
8gg#J
8eeL
8ddJ
8cc#L
8aJ
4ff#
=
8ff#L
8ff#J
16ff#LL
16ff#J
8eeJ
8ff#L
8eeJ
8cc#L
8eeJ
=
4.dd
8cc#
16ddLL
16cc#J
8bJ
8aL
8cc#J
=
8bL
8cc#J
8ddL
8eeJ
8ff#L
8eeJ
8ff#L
8gg#J
=
8aaL
8gg#J
8eeL
8ddJ
8cc#L
8aJ
4ff#
!!linebreak:original
=
8ff#L
8ff#J
16ff#LL
16ff#J
8eeJ
8ff#L
8eeJ
8cc#L
8eeJ
=
4.dd
8cc#
16ddLL
16cc#J
8bJ
8aL
8cc#J
=
4b
16bLL
16bJ
8bJ
8cc#L
8bJ
8aL
8gg#J
=||
*M4/4
8aaL
8gg#J
8eeL
8ddJ
8cc#L
8aJ
4ff#
!!linebreak:original
=
8ff#L
8ff#J
16ff#LL
16ff#J
8eeJ
8ff#L
8eeJ
8cc#L
8eeJ
=
4.dd
8cc#
16ddLL
16cc#J
8bJ
8aL
8cc#J
=
8bL
8cc#J
8ddL
8eeJ
8ff#L
8eeJ
8ff#L
8gg#J
=
8aaL
8gg#J
8eeL
8ddJ
8cc#L
8aJ
4ff#
=
8ff#L
8ff#J
16ff#LL
16ff#J
8eeJ
8ff#L
8eeJ
8cc#L
8eeJ
!!linebreak:original
=
4.dd
8cc#
16ddLL
16cc#J
8bJ
8aL
8cc#J
=
4b
16bLL
16bJ
8bJ
8cc#L
8bJ
8aL
8f#J
=||
8eL
8f#J
8aL
8bJ
16cc#LL
16bJ
8aJ
4cc#
=
8cc#L
8cc#J
16ddLL
16cc#J
8bJ
8cc#L
8bJ
8aL
8cc#J
=
4.dd
8cc#
16ddLL
16cc#J
8bJ
8aL
8cc#J
!!linebreak:original
=
8bL
8cc#J
8ddL
8eeJ
8ff#L
8eeJ
8cc#L
8aJ
=
8eL
8f#J
8aL
8bJ
16cc#LL
16bJ
8aJ
4cc#
=
8cc#L
8cc#J
16ddLL
16cc#J
8bJ
8cc#L
8bJ
8aL
8cc#J
=
4.dd
8cc#
16ddLL
16cc#J
8bJ
8aL
8cc#J
=
4b
16bLL
16bJ
8bJ
8cc#L
8bJ
8aL
8f#J
!!linebreak:original
=
8eL
8f#J
8aL
8bJ
16cc#LL
16bJ
8aJ
4cc#
=
8cc#L
8cc#J
16ddLL
16cc#J
8bJ
8cc#L
8bJ
8aL
8cc#J
=
4.dd
8cc#
16ddLL
16cc#J
8bJ
8aL
8cc#J
=
8bL
8cc#J
8ddL
8eeJ
8ff#L
8eeJ
8cc#L
8aJ
=
8eL
8f#J
8aL
8bJ
16cc#LL
16bJ
8aJ
4cc#
!!linebreak:original
=
8cc#L
8cc#J
16ddLL
16cc#J
8bJ
8cc#L
8bJ
8aL
8cc#J
=
4ccn
16cc#XLL
16cc#J
8cc#J
4dd
16ddLL
16ddJ
8ddJ
=
4ee
16eeLL
16eeJ
8eeJ
8eeL
8ff#J
8gg#L
8eeJ
=||
*-
